icons/svgs/calendar-clock-outline.svg

<svg width="24" height="24" viewBox="0 0 24 24" fill="none" xmlns="http://www.w3.org/2000/svg">
<path d="M6.25 2C6.75781 2 7.1875 2.42969 7.1875 2.9375V4.5H12.8125V2.9375C12.8125 2.42969 13.2031 2 13.75 2C14.2578 2 14.6875 2.42969 14.6875 2.9375V4.5H16.25C17.6172 4.5 18.75 5.63281 18.75 7V7.625V9.5H18.125H16.875H12.5H3.125V19.5C3.125 19.8516 3.39844 20.125 3.75 20.125H12.3438C12.8125 20.8672 13.4375 21.5312 14.1406 22H3.75C2.34375 22 1.25 20.9062 1.25 19.5V9.5V7.625V7C1.25 5.63281 2.34375 4.5 3.75 4.5H5.3125V2.9375C5.3125 2.42969 5.70312 2 6.25 2ZM12.5 16.375C12.5 14.3828 13.5547 12.5469 15.3125 11.5312C17.0312 10.5156 19.1797 10.5156 20.9375 11.5312C22.6562 12.5469 23.75 14.3828 23.75 16.375C23.75 18.4062 22.6562 20.2422 20.9375 21.2578C19.1797 22.2734 17.0312 22.2734 15.3125 21.2578C13.5547 20.2422 12.5 18.4062 12.5 16.375ZM18.125 13.25C17.7734 13.25 17.5 13.5625 17.5 13.875V16.375C17.5 16.7266 17.7734 17 18.125 17H20C20.3125 17 20.625 16.7266 20.625 16.375C20.625 16.0625 20.3125 15.75 20 15.75H18.75V13.875C18.75 13.5625 18.4375 13.25 18.125 13.25Z" fill="black"/>
</svg>

<svg xmlns="http://www.w3.org/2000/svg" width="24" height="24" fill="currentColor" class="icon-calendar-clock-outline" viewBox="0 0 24 24">
  <mask id="a" width="23" height="21" x="1" y="2" maskUnits="userSpaceOnUse" style="mask-type:alpha">
    <path d="M6.25 2a.95.95 0 0 1 .938.938V4.5h5.625V2.938c0-.508.39-.938.937-.938a.95.95 0 0 1 .938.938V4.5h1.562c1.367 0 2.5 1.133 2.5 2.5v2.5H3.125v10c0 .352.273.625.625.625h8.594c.469.742 1.094 1.406 1.797 1.875H3.75a2.47 2.47 0 0 1-2.5-2.5V7c0-1.367 1.094-2.5 2.5-2.5h1.563V2.938c0-.508.39-.938.937-.938m6.25 14.375a5.58 5.58 0 0 1 2.813-4.844c1.718-1.015 3.867-1.015 5.624 0 1.72 1.016 2.813 2.852 2.813 4.844 0 2.031-1.094 3.867-2.812 4.883-1.758 1.015-3.907 1.015-5.625 0a5.6 5.6 0 0 1-2.813-4.883m5.625-3.125a.64.64 0 0 0-.625.625v2.5c0 .352.273.625.625.625H20a.64.64 0 0 0 .625-.625c0-.312-.312-.625-.625-.625h-1.25v-1.875c0-.312-.312-.625-.625-.625"/>
  </mask>
  <g mask="url(#a)">
    <path d="M0 0h24v24H0z"/>
  </g>
</svg>
